!!!OTL: KRONE KRANE SCHWICKLE SCHWANE
!!!ARE: Europa, Mitteleuropa, Deutschland, Barmen, Elberfeld
!!!SCT: K2326
!!!YEM: Copyright 1995, estate of Helmut Schaffrath.
**kern
*ICvox
*Ivox
*M2/4
*k[b-]
*F:
=1
{8cc
8b-
8a
8b-
=2
8cc
8b-
8a
8b-}
=3
{8cc
8dd
8cc
8dd
=4
8cc
8b-
8a
8b-}
=5
{8cc
8cc
8cc
8dd
=6
4cc
8a}
{8b-
=7
8cc
8cc
8cc
8dd
=8
4cc
8a}
{8b-
=9
8cc
8cc
8cc
8dd
=10
8cc
8b-
8a}
{8dd
=11
8cc
8b-
8a
8dd
=12
8cc
8b-
8a
8r}
=13
{8dd
8cc
8b-
8a
=14
8g
8g
4f}
==
!!!AGN: Kinder - Lied, Reigen, Tanz - Spiel
!!!ONB: ESAC (Essen Associative Code) Database: KINDER
!!!AMT: simple duple
!!!AIN: vox
!!!EED: Helmut Schaffrath
!!!EEV: 1.0
*-
